X: 5131
T: Bridgie Con Matt's
R: slide
M: 12/8
K: Dmajor
|:fgf e2d B2d A2d|B2d A2d B2d A2e|
fgf e2d B2d A2B|1 d2e f2e d3 d3:|2 d2e f2e d3 d2||
|:A|d2e fef a2b a2f|d2e fef e2d B2A|
d2e fef a2b a2e|1 d2e f2e d3 d2:|2 d2e f2e d3 d3||

